logo/andyknapp.svg

<svg id="logo" viewBox="0 0 330 49" preserveAspectRatio="xMinYMin meet" class="logo">
    <g>
        <path class="lower p2" d="M299.8,48.597 C299.41,48.597 299.072,48.455 298.788,48.171 C298.512069,47.9070752 298.35753,47.5408146 298.360943,47.159 L298.360943,12.21 C298.360943,11.82 298.503,11.482 298.788,11.198 C299.052097,10.9224368 299.418335,10.7682693 299.8,10.772 L308.856,10.772 C309.247,10.772 309.584,10.914 309.869,11.198 C310.153,11.482 310.295,11.82 310.295,12.21 L310.295,13.809 C311.147,12.708 312.239,11.838 313.571,11.199 C314.903,10.559 316.439,10.239 318.179,10.239 C321.482,10.239 324.146,11.234 326.17,13.223 C328.195,15.212 329.296,18.319 329.473,22.546 C329.509,23.078 329.526,23.771 329.526,24.623 C329.526,25.511 329.509,26.221 329.473,26.754 C329.331,30.767 328.221,33.813 326.143,35.891 C324.066,37.968 321.411,39.007 318.179,39.007 C314.947,39.007 312.585,37.942 311.094,35.811 L311.094,47.158 C311.094,47.548 310.952,47.886 310.668,48.17 C310.403665,48.4458179 310.037011,48.6000077 309.655,48.596 L299.8,48.596 L299.8,48.597 Z M313.757,29.472 C314.681,29.472 315.329,29.224 315.702,28.726 C316.075,28.229 316.315,27.448 316.422,26.382 C316.492,25.672 316.528,25.086 316.528,24.624 C316.528,24.163 316.492,23.577 316.421,22.866 C316.315,21.801 316.075,21.019 315.702,20.522 C315.329,20.025 314.681,19.776 313.757,19.776 C312.834,19.776 312.177,20.034 311.787,20.549 C311.396,21.064 311.165,21.836 311.094,22.866 C311.058,23.399 311.041,24.056 311.041,24.837 C311.041,25.619 311.058,26.276 311.094,26.808 C311.164,27.696 311.404,28.362 311.813,28.806 C312.221,29.25 312.87,29.472 313.757,29.472 L313.757,29.472 Z" id="Shape"></path>
        <path class="lower p" d="M265.024,48.597 C264.634,48.597 264.296,48.455 264.012,48.171 C263.736437,47.9069034 263.582269,47.540665 263.585934,47.159 L263.585934,12.21 C263.585934,11.82 263.728,11.482 264.012,11.198 C264.276097,10.9224368 264.642335,10.7682693 265.024,10.772 L274.081,10.772 C274.471,10.772 274.809,10.914 275.093,11.198 C275.377,11.482 275.519,11.82 275.519,12.21 L275.519,13.809 C276.371,12.708 277.463,11.838 278.795,11.199 C280.127,10.559 281.663,10.239 283.403,10.239 C286.706,10.239 289.37,11.234 291.394,13.223 C293.419,15.212 294.52,18.319 294.697,22.546 C294.733,23.078 294.751,23.771 294.751,24.623 C294.751,25.511 294.733,26.221 294.697,26.754 C294.555,30.767 293.445,33.813 291.367,35.891 C289.29,37.968 286.635,39.007 283.403,39.007 C280.171,39.007 277.81,37.942 276.318,35.811 L276.318,47.158 C276.318,47.548 276.176,47.886 275.892,48.17 C275.627903,48.4455632 275.261665,48.5997307 274.88,48.596 L265.024,48.596 L265.024,48.597 Z M278.982,29.472 C279.905,29.472 280.553,29.224 280.926,28.726 C281.299,28.229 281.539,27.448 281.646,26.382 C281.716,25.672 281.752,25.086 281.752,24.624 C281.752,24.163 281.716,23.577 281.645,22.866 C281.539,21.801 281.299,21.019 280.926,20.522 C280.553,20.025 279.906,19.776 278.982,19.776 C278.058,19.776 277.402,20.034 277.011,20.549 C276.62,21.064 276.389,21.836 276.318,22.866 C276.283,23.399 276.265,24.056 276.265,24.837 C276.265,25.619 276.283,26.276 276.318,26.808 C276.389,27.696 276.628,28.362 277.038,28.806 C277.446,29.25 278.094,29.472 278.982,29.472 L278.982,29.472 Z" id="Shape"></path>
        <path  class="lower a2" d="M239.133,39.008 C237.144,39.008 235.36,38.635 233.779,37.889 C232.199,37.143 230.973,36.131 230.103,34.853 C229.233,33.574 228.798,32.136 228.798,30.538 C228.798,25.743 232.687,22.671 240.465,21.321 L246.112,20.416 L246.112,20.362 C246.112,19.332 246.023,18.631 245.846,18.258 C245.668,17.885 245.224,17.698 244.514,17.698 C244.123,17.698 243.786,17.77 243.502,17.912 C243.173573,18.0848193 242.869019,18.299621 242.596,18.551 C242.276,18.835 242.001,19.048 241.77,19.191 C241.54,19.332 241.229,19.403 240.838,19.403 L231.781,19.403 C231.461,19.403 231.186,19.306 230.956,19.11 C230.72726,18.9201076 230.599167,18.6351267 230.609,18.338 C230.609,17.308 231.115,16.154 232.128,14.875 C233.14,13.597 234.703,12.505 236.816,11.599 C238.929,10.693 241.53,10.24 244.62,10.24 C249.38,10.24 252.949,11.235 255.328,13.224 C257.708,15.213 258.898,18.054 258.898,21.747 L258.898,37.037 C258.898,37.427 258.756,37.765 258.471,38.049 C258.206903,38.3245632 257.840665,38.4787307 257.459,38.475 L248.136,38.475 C247.746,38.475 247.408,38.333 247.124,38.049 C246.848437,37.7849034 246.694269,37.418665 246.698,37.037 L246.698,35.545 C245.917,36.611 244.868,37.455 243.555,38.075 C242.241,38.697 240.767,39.008 239.133,39.008 L239.133,39.008 Z M242.809,31.124 C243.874,31.124 244.718,30.786 245.339,30.111 C245.961,29.437 246.272,28.407 246.272,27.021 L246.272,26.968 L243.129,27.661 C241.566,28.016 240.785,28.673 240.785,29.631 C240.785,30.058 240.962,30.413 241.317,30.697 C241.672,30.982 242.17,31.124 242.809,31.124 Z" id="Shape"></path>
        <path class="lower n2" d="M195.295,38.5940662 C194.905,38.5940662 194.567,38.452 194.283,38.168 C194.007182,37.9036646 193.852992,37.5370113 193.856924,37.155 L193.856924,12.33 C193.856924,11.94 193.999,11.602 194.283,11.318 C194.546925,11.0420687 194.913185,10.8875298 195.295,10.891 L204.618,10.891 C205.008,10.891 205.346,11.034 205.63,11.318 C205.914,11.602 206.056,11.939 206.056,12.33 L206.056,14.088 C206.98,12.987 208.231,12.09 209.812,11.398 C211.392,10.705 213.088,10.358 214.9,10.358 C216.782,10.358 218.504,10.794 220.067,11.664 C221.63,12.534 222.882,13.874 223.823,15.686 C224.764,17.497 225.235,19.753 225.235,22.452 L225.235,37.155 C225.235,37.546 225.093,37.883 224.808,38.168 C224.543903,38.4435632 224.177665,38.5977307 223.796,38.5940662 L213.621,38.5940662 C213.231,38.5940662 212.893,38.452 212.609,38.168 C212.333182,37.9036646 212.178992,37.5370113 212.183,37.155 L212.183,22.825 C212.183,21.865 211.952,21.138 211.49,20.641 C211.028,20.143 210.371,19.895 209.519,19.895 C208.667,19.895 208.009,20.143 207.548,20.641 C207.086,21.138 206.855,21.866 206.855,22.825 L206.855,37.155 C206.855,37.546 206.713,37.883 206.429,38.168 C206.164903,38.4435632 205.798665,38.5977307 205.417,38.5940662 L195.295,38.5940662 L195.295,38.5940662 Z" id="Path"></path>
        <path class="upper k" d="M157.56,38.7710662 C157.169,38.7710662 156.831,38.629 156.547,38.345 C156.271437,38.0809034 156.117269,37.714665 156.120934,37.333 L156.120934,2.918 C156.120934,2.528 156.263,2.19 156.547,1.906 C156.811097,1.63043683 157.177335,1.47626929 157.559,1.47993383 L167.735,1.47993383 C168.125,1.47993383 168.463,1.622 168.747,1.906 C169.031,2.19 169.173,2.528 169.173,2.918 L169.173,13.466 L175.193,2.652 C175.619,1.87 176.33,1.47993383 177.323,1.47993383 L189.097,1.47993383 C189.417,1.47993383 189.692,1.595 189.923,1.826 C190.154,2.057 190.269,2.332 190.269,2.652 C190.269,2.865 190.216,3.06 190.109,3.238 L180.52,19.326 L191.015,37.013 C191.122,37.155 191.175,37.351 191.175,37.599 C191.175,37.919 191.06,38.194 190.829,38.425 C190.598,38.655 190.323,38.7710662 190.003,38.7710662 L177.857,38.7710662 C177.253,38.7710662 176.773,38.638 176.418,38.371 C176.063,38.105 175.815,37.831 175.672,37.546 L169.173,25.932 L169.173,37.332 C169.173,37.724 169.031,38.061 168.747,38.345 C168.482903,38.6205632 168.116665,38.7747307 167.735,38.7710662 L157.559,38.7710662 L157.56,38.7710662 Z" id="Path"></path>
        <path class="lower y" d="M118.918,48.183 C118.598,48.183 118.323,48.076 118.093,47.863 C117.866216,47.66011 117.739452,47.3682243 117.746,47.064 C117.746,47.029 117.737,46.958 117.72,46.851 C117.703623,46.7379672 117.732358,46.6230281 117.8,46.531 L122.062,36.303 L111.78,12.01 C111.742132,11.8893628 111.7239,11.7634235 111.725837,11.637 C111.797,11.282 111.957,10.98 112.206,10.732 C112.455,10.483 112.739,10.359 113.058,10.359 L122.062,10.359 C122.878,10.359 123.447,10.785 123.766,11.637 L128.135,23.784 L132.663,11.637 C133.018,10.785 133.622,10.359 134.474,10.359 L143.371,10.359 C143.691,10.359 143.975,10.474 144.223,10.705 C144.472,10.935 144.596,11.193 144.596,11.477 C144.596,11.691 144.578,11.868 144.543,12.01 L129.52,46.904 C129.165,47.757 128.543,48.183 127.655,48.183 L118.918,48.183 L118.918,48.183 Z" id="Path"></path>
        <path class="lower d" d="M89.21,39.008 C85.907,39.008 83.243,38.014 81.218,36.025 C79.194,34.035 78.093,30.928 77.916,26.702 L77.862,24.571 L77.916,22.493 C78.058,18.48 79.167,15.435 81.246,13.357 C83.323,11.279 85.978,10.24 89.21,10.24 C92.086,10.24 94.448,11.075 96.295,12.744 L96.295,2.09 C96.295,1.699 96.437,1.361 96.721,1.077 C96.9850966,0.80143683 97.351335,0.647269294 97.733,0.65093383 L107.589,0.65093383 C107.979,0.65093383 108.317,0.793 108.601,1.077 C108.885,1.361 109.027,1.699 109.027,2.09 L109.027,37.037 C109.027,37.427 108.885,37.765 108.601,38.049 C108.336903,38.3245632 107.970665,38.4787307 107.589,38.475 L98.532,38.475 C98.142,38.475 97.804,38.333 97.52,38.049 C97.2444368,37.7849034 97.0902693,37.418665 97.094,37.037 L97.094,35.812 C95.212,37.942 92.584,39.008 89.21,39.008 L89.21,39.008 Z M93.631,29.472 C94.555,29.472 95.211,29.215 95.602,28.7 C95.993,28.185 96.224,27.412 96.295,26.382 C96.365,25.317 96.401,24.66 96.401,24.412 C96.401,24.162 96.366,23.505 96.295,22.44 C96.224,21.552 95.985,20.886 95.575,20.442 C95.167,19.998 94.519,19.776 93.631,19.776 C92.708,19.776 92.06,20.025 91.687,20.522 C91.314,21.019 91.074,21.801 90.967,22.866 C90.932,23.221 90.914,23.807 90.914,24.624 C90.914,25.441 90.932,26.027 90.968,26.382 C91.074,27.448 91.314,28.229 91.687,28.726 C92.06,29.224 92.707,29.472 93.631,29.472 L93.631,29.472 Z" id="Shape"></path>
        <path class="lower n" d="M43.79,38.4750662 C43.4,38.4750662 43.063,38.333 42.779,38.049 C42.5030687,37.7850752 42.3485298,37.4188146 42.3519428,37.037 L42.3519428,12.211 C42.3519428,11.821 42.495,11.483 42.779,11.199 C43.0430966,10.9234368 43.409335,10.7692693 43.791,10.773 L53.114,10.773 C53.504,10.773 53.842,10.915 54.126,11.199 C54.41,11.483 54.552,11.821 54.552,12.211 L54.552,13.97 C55.476,12.869 56.727,11.972 58.308,11.28 C59.888,10.587 61.584,10.24 63.396,10.24 C65.278,10.24 67,10.675 68.563,11.546 C70.126,12.416 71.378,13.756 72.319,15.568 C73.26,17.379 73.731,19.634 73.731,22.333 L73.731,37.037 C73.731,37.427 73.589,37.765 73.304,38.049 C73.0399034,38.3245632 72.673665,38.4787307 72.292,38.4750662 L62.117,38.4750662 C61.727,38.4750662 61.389,38.333 61.105,38.049 C60.8294368,37.7849034 60.6752693,37.418665 60.679,37.037 L60.679,22.707 C60.679,21.747 60.448,21.019 59.986,20.522 C59.524,20.025 58.867,19.776 58.015,19.776 C57.163,19.776 56.505,20.025 56.044,20.522 C55.582,21.019 55.351,21.747 55.351,22.706 L55.351,37.037 C55.351,37.427 55.209,37.765 54.925,38.049 C54.6609034,38.3245632 54.294665,38.4787307 53.913,38.4750662 L43.79,38.4750662 Z" id="Path"></path>
        <g id="Group" transform="translate(-0.000157, 1.184000)">
            <path id="rect1" class="k clone" d="M157.560157,37.5870662 C157.169157,37.5870662 156.831157,37.445 156.547157,37.161 C156.271593,36.8969034 156.117426,36.530665 156.12109,36.149 L156.12109,1.734 C156.12109,1.344 156.263157,1.006 156.547157,0.722 C156.811253,0.44643683 157.177492,0.292269294 157.559157,0.29593383 L167.735157,0.29593383 C168.125157,0.29593383 168.463157,0.438 168.747157,0.722 C169.031157,1.006 169.173157,1.344 169.173157,1.734 L169.173157,12.282 L175.193157,1.468 C175.619157,0.686 176.330157,0.29593383 177.323157,0.29593383 L189.097157,0.29593383 C189.417157,0.29593383 189.692157,0.411 189.923157,0.642 C190.154157,0.873 190.269157,1.148 190.269157,1.468 C190.269157,1.681 190.216157,1.876 190.109157,2.054 L180.520157,18.142 L191.015157,35.829 C191.122157,35.971 191.175157,36.167 191.175157,36.415 C191.175157,36.735 191.060157,37.01 190.829157,37.241 C190.598157,37.471 190.323157,37.5870662 190.003157,37.5870662 L177.857157,37.5870662 C177.253157,37.5870662 176.773157,37.454 176.418157,37.187 C176.063157,36.921 175.815157,36.647 175.672157,36.362 L169.173157,24.748 L169.173157,36.148 C169.173157,36.54 169.031157,36.877 168.747157,37.161 C168.48306,37.4365632 168.116822,37.5907307 167.735157,37.5870662 L157.559157,37.5870662 L157.560157,37.5870662 Z" id="rect1"></path>
            <path id="rect1" class="upper a" d="M1.17215659,37.291 C0.852156592,37.291 0.577156592,37.176 0.346156592,36.945 C0.12168515,36.7292755 -0.00354950239,36.4303049 7.6611243e-05,36.119 C7.6611243e-05,35.977 0.0181565918,35.853 0.0531565918,35.746 L11.9331566,1.758 C12.0751566,1.296 12.3421566,0.888 12.7331566,0.533 C13.1231566,0.177 13.6561566,0 14.3311566,0 L25.8911566,0 C26.5661566,0 27.0981566,0.177 27.4891566,0.533 C27.8791566,0.888 28.1461566,1.296 28.2891566,1.758 L40.1691566,35.746 C40.2041566,35.853 40.2221566,35.977 40.2221566,36.119 C40.2221566,36.439 40.1061566,36.714 39.8751566,36.945 C39.6451566,37.175 39.3691566,37.291 39.0501566,37.291 L29.1941566,37.291 C28.1281566,37.291 27.4361566,36.847 27.1161566,35.959 L25.8381566,32.443 L14.3841566,32.443 L13.1051566,35.959 C12.7851566,36.847 12.0931566,37.291 11.0281566,37.291 L1.17215659,37.291 L1.17215659,37.291 Z M17.1011566,22.056 L23.1211566,22.056 L20.0841566,12.147 L17.1011566,22.057 L17.1011566,22.056 Z" id="rect1"></path>
        </g>
    </g>

    <linearGradient id="Gradient1">
        <stop class="stop1" offset="0%"/>
        <stop class="stop2" offset="25%"/>
        <stop class="stop3" offset="100%"/>
    </linearGradient>
    <style type="text/css"><![CDATA[
        #rect1 { stroke: url(#Gradient1); }
        .stop1 { stop-color: red; }
        .stop2 { stop-color: black; stop-opacity: 0; }
        .stop3 { stop-color: blue; }
    ]]></style>
</svg>

<svg id="logo" viewBox="0 0 330 49" preserveAspectRatio="xMinYMin meet" class="logo">
  <g>
    <path class="lower p2" d="M299.8 48.597c-.39 0-.728-.142-1.012-.426a1.383 1.383 0 0 1-.427-1.012V12.21c0-.39.142-.728.427-1.012a1.383 1.383 0 0 1 1.012-.426h9.056c.391 0 .728.142 1.013.426.284.284.426.622.426 1.012v1.599c.852-1.101 1.944-1.971 3.276-2.61 1.332-.64 2.868-.96 4.608-.96 3.303 0 5.967.995 7.991 2.984 2.025 1.989 3.126 5.096 3.303 9.323.036.532.053 1.225.053 2.077 0 .888-.017 1.598-.053 2.131-.142 4.013-1.252 7.059-3.33 9.137-2.077 2.077-4.732 3.116-7.964 3.116s-5.594-1.065-7.085-3.196v11.347c0 .39-.142.728-.426 1.012a1.383 1.383 0 0 1-1.013.426H299.8zm13.957-19.125c.924 0 1.572-.248 1.945-.746.373-.497.613-1.278.72-2.344.07-.71.106-1.296.106-1.758 0-.461-.036-1.047-.107-1.758-.106-1.065-.346-1.847-.719-2.344-.373-.497-1.021-.746-1.945-.746-.923 0-1.58.258-1.97.773-.391.515-.622 1.287-.693 2.317-.036.533-.053 1.19-.053 1.971 0 .782.017 1.439.053 1.971.07.888.31 1.554.719 1.998.408.444 1.057.666 1.944.666z"/>
    <path class="lower p" d="M265.024 48.597c-.39 0-.728-.142-1.012-.426a1.383 1.383 0 0 1-.426-1.012V12.21c0-.39.142-.728.426-1.012a1.383 1.383 0 0 1 1.012-.426h9.057c.39 0 .728.142 1.012.426.284.284.426.622.426 1.012v1.599c.852-1.101 1.944-1.971 3.276-2.61 1.332-.64 2.868-.96 4.608-.96 3.303 0 5.967.995 7.991 2.984 2.025 1.989 3.126 5.096 3.303 9.323.036.532.054 1.225.054 2.077 0 .888-.018 1.598-.054 2.131-.142 4.013-1.252 7.059-3.33 9.137-2.077 2.077-4.732 3.116-7.964 3.116s-5.593-1.065-7.085-3.196v11.347c0 .39-.142.728-.426 1.012a1.383 1.383 0 0 1-1.012.426h-9.856zm13.958-19.125c.923 0 1.571-.248 1.944-.746.373-.497.613-1.278.72-2.344.07-.71.106-1.296.106-1.758 0-.461-.036-1.047-.107-1.758-.106-1.065-.346-1.847-.719-2.344-.373-.497-1.02-.746-1.944-.746-.924 0-1.58.258-1.971.773s-.622 1.287-.693 2.317c-.035.533-.053 1.19-.053 1.971 0 .782.018 1.439.053 1.971.071.888.31 1.554.72 1.998.408.444 1.056.666 1.944.666z"/>
    <path class="lower a2" d="M239.133 39.008c-1.989 0-3.773-.373-5.354-1.119-1.58-.746-2.806-1.758-3.676-3.036-.87-1.279-1.305-2.717-1.305-4.315 0-4.795 3.889-7.867 11.667-9.217l5.647-.905v-.054c0-1.03-.089-1.731-.266-2.104-.178-.373-.622-.56-1.332-.56-.391 0-.728.072-1.012.214a4.28 4.28 0 0 0-.906.639c-.32.284-.595.497-.826.64-.23.141-.541.212-.932.212h-9.057c-.32 0-.595-.097-.825-.293a.962.962 0 0 1-.347-.772c0-1.03.506-2.184 1.519-3.463 1.012-1.278 2.575-2.37 4.688-3.276 2.113-.906 4.714-1.359 7.804-1.359 4.76 0 8.329.995 10.708 2.984 2.38 1.989 3.57 4.83 3.57 8.523v15.29c0 .39-.142.728-.427 1.012a1.383 1.383 0 0 1-1.012.426h-9.323c-.39 0-.728-.142-1.012-.426a1.383 1.383 0 0 1-.426-1.012v-1.492c-.781 1.066-1.83 1.91-3.143 2.53-1.314.622-2.788.933-4.422.933zm3.676-7.884c1.065 0 1.909-.338 2.53-1.013.622-.674.933-1.704.933-3.09v-.053l-3.143.693c-1.563.355-2.344 1.012-2.344 1.97 0 .427.177.782.532 1.066.355.285.853.427 1.492.427z"/>
    <path class="lower n2" d="M195.295 38.594c-.39 0-.728-.142-1.012-.426a1.383 1.383 0 0 1-.426-1.013V12.33c0-.39.142-.728.426-1.012a1.383 1.383 0 0 1 1.012-.427h9.323c.39 0 .728.143 1.012.427.284.284.426.621.426 1.012v1.758c.924-1.101 2.175-1.998 3.756-2.69 1.58-.693 3.276-1.04 5.088-1.04 1.882 0 3.604.436 5.167 1.306 1.563.87 2.815 2.21 3.756 4.022.941 1.811 1.412 4.067 1.412 6.766v14.703c0 .391-.142.728-.427 1.013a1.383 1.383 0 0 1-1.012.426h-10.175c-.39 0-.728-.142-1.012-.426a1.383 1.383 0 0 1-.426-1.013v-14.33c0-.96-.231-1.687-.693-2.184-.462-.498-1.119-.746-1.971-.746-.852 0-1.51.248-1.971.746-.462.497-.693 1.225-.693 2.184v14.33c0 .391-.142.728-.426 1.013a1.383 1.383 0 0 1-1.012.426h-10.122z"/>
    <path class="upper k" d="M157.56 38.771c-.391 0-.729-.142-1.013-.426a1.383 1.383 0 0 1-.426-1.012V2.918c0-.39.142-.728.426-1.012a1.383 1.383 0 0 1 1.012-.426h10.176c.39 0 .728.142 1.012.426.284.284.426.622.426 1.012v10.548l6.02-10.814c.426-.782 1.137-1.172 2.13-1.172h11.774c.32 0 .595.115.826.346.231.231.346.506.346.826 0 .213-.053.408-.16.586l-9.589 16.088 10.495 17.687c.107.142.16.338.16.586 0 .32-.115.595-.346.826-.231.23-.506.346-.826.346h-12.146c-.604 0-1.084-.133-1.439-.4-.355-.266-.603-.54-.746-.825l-6.499-11.614v11.4c0 .392-.142.729-.426 1.013a1.383 1.383 0 0 1-1.012.426h-10.176z"/>
    <path class="k clone" d="M157.56 38.771c-.391 0-.729-.142-1.013-.426a1.383 1.383 0 0 1-.426-1.012V2.918c0-.39.142-.728.426-1.012a1.383 1.383 0 0 1 1.012-.426h10.176c.39 0 .728.142 1.012.426.284.284.426.622.426 1.012v10.548l6.02-10.814c.426-.782 1.137-1.172 2.13-1.172h11.774c.32 0 .595.115.826.346.231.231.346.506.346.826 0 .213-.053.408-.16.586l-9.589 16.088 10.495 17.687c.107.142.16.338.16.586 0 .32-.115.595-.346.826-.231.23-.506.346-.826.346h-12.146c-.604 0-1.084-.133-1.439-.4-.355-.266-.603-.54-.746-.825l-6.499-11.614v11.4c0 .392-.142.729-.426 1.013a1.383 1.383 0 0 1-1.012.426h-10.176z"/>
    <path class="lower y" d="M118.918 48.183c-.32 0-.595-.107-.825-.32a1.042 1.042 0 0 1-.347-.799c0-.035-.009-.106-.026-.213a.435.435 0 0 1 .08-.32l4.262-10.228L111.78 12.01a1.18 1.18 0 0 1-.054-.373c.071-.355.231-.657.48-.905.249-.249.533-.373.852-.373h9.004c.816 0 1.385.426 1.704 1.278l4.369 12.147 4.528-12.147c.355-.852.959-1.278 1.811-1.278h8.897c.32 0 .604.115.852.346.249.23.373.488.373.772 0 .214-.018.391-.053.533L129.52 46.904c-.355.853-.977 1.279-1.865 1.279h-8.737z"/>
    <path class="lower d" d="M89.21 39.008c-3.303 0-5.967-.994-7.992-2.983-2.024-1.99-3.125-5.097-3.302-9.323l-.054-2.131.054-2.078c.142-4.013 1.251-7.058 3.33-9.136 2.077-2.078 4.732-3.117 7.964-3.117 2.876 0 5.238.835 7.085 2.504V2.09c0-.391.142-.729.426-1.013a1.383 1.383 0 0 1 1.012-.426h9.856c.39 0 .728.142 1.012.426.284.284.426.622.426 1.013v34.947c0 .39-.142.728-.426 1.012a1.383 1.383 0 0 1-1.012.426h-9.057c-.39 0-.728-.142-1.012-.426a1.383 1.383 0 0 1-.426-1.012v-1.225c-1.882 2.13-4.51 3.196-7.884 3.196zm4.421-9.536c.924 0 1.58-.257 1.971-.772s.622-1.288.693-2.318c.07-1.065.106-1.722.106-1.97 0-.25-.035-.907-.106-1.972-.071-.888-.31-1.554-.72-1.998-.408-.444-1.056-.666-1.944-.666-.923 0-1.571.249-1.944.746s-.613 1.279-.72 2.344c-.035.355-.053.941-.053 1.758 0 .817.018 1.403.054 1.758.106 1.066.346 1.847.719 2.344.373.498 1.02.746 1.944.746z"/>
    <path class="lower n" d="M43.79 38.475c-.39 0-.727-.142-1.011-.426a1.383 1.383 0 0 1-.427-1.012V12.211c0-.39.143-.728.427-1.012a1.383 1.383 0 0 1 1.012-.426h9.323c.39 0 .728.142 1.012.426.284.284.426.622.426 1.012v1.759c.924-1.101 2.175-1.998 3.756-2.69 1.58-.693 3.276-1.04 5.088-1.04 1.882 0 3.604.435 5.167 1.306 1.563.87 2.815 2.21 3.756 4.022.941 1.811 1.412 4.066 1.412 6.765v14.704c0 .39-.142.728-.427 1.012a1.383 1.383 0 0 1-1.012.426H62.117c-.39 0-.728-.142-1.012-.426a1.383 1.383 0 0 1-.426-1.012v-14.33c0-.96-.231-1.688-.693-2.185-.462-.497-1.119-.746-1.971-.746-.852 0-1.51.249-1.971.746-.462.497-.693 1.225-.693 2.184v14.331c0 .39-.142.728-.426 1.012a1.383 1.383 0 0 1-1.012.426H43.79z"/>
    <path class="upper a" d="M1.172 38.475c-.32 0-.595-.115-.826-.346A1.127 1.127 0 0 1 0 37.303c0-.142.018-.266.053-.373l11.88-33.988c.142-.462.409-.87.8-1.225.39-.356.923-.533 1.598-.533h11.56c.675 0 1.207.177 1.598.533.39.355.657.763.8 1.225l11.88 33.988c.035.107.053.231.053.373 0 .32-.116.595-.347.826-.23.23-.506.346-.825.346h-9.856c-1.066 0-1.758-.444-2.078-1.332l-1.278-3.516H14.384l-1.279 3.516c-.32.888-1.012 1.332-2.077 1.332H1.172zM17.101 23.24h6.02l-3.037-9.909-2.983 9.91z"/>
  </g>
  <linearGradient id="Gradient1">
        <stop class="stop1" offset="0%"/>
        <stop class="stop2" offset="25%"/>
        <stop class="stop3" offset="100%"/>
      </linearGradient>
      <linearGradient id="Gradient2" x1="0" x2="0" y1="0" y2="1">
        <stop offset="0%" stop-color="red"/>
        <stop offset="50%" stop-color="black" stop-opacity="0"/>
        <stop offset="100%" stop-color="blue"/>
      </linearGradient>
      <style type="text/css"><![CDATA[
        #rect1 { fill: url(#Gradient1); }
        .stop1 { stop-color: red; }
        .stop2 { stop-color: black; stop-opacity: 0; }
        .stop3 { stop-color: blue; }
      ]]></style>
</svg>
